material/.icons/material/gamepad-down.svg

<svg xmlns="http://www.w3.org/2000/svg" viewBox="0 0 24 24"><path d="M9 2v5.5l3 3 3-3V2H9M2 9v6h5.5l3-3-3-3H2m14.5 0l-3 3 3 3H22V9h-5.5M12 13.5l-3 3V22h6v-5.5l-3-3M11 18h2v2h-2v-2z"/></svg>

<?xml version="1.0" encoding="UTF-8"?><!DOCTYPE svg PUBLIC "-//W3C//DTD SVG 1.1//EN" "http://www.w3.org/Graphics/SVG/1.1/DTD/svg11.dtd"><svg xmlns="http://www.w3.org/2000/svg" xmlns:xlink="http://www.w3.org/1999/xlink" version="1.1" id="mdi-gamepad-down" width="24" height="24" viewBox="0 0 24 24"><path d="M9,2V7.5L12,10.5L15,7.5V2H9M2,9V15H7.5L10.5,12L7.5,9H2M16.5,9L13.5,12L16.5,15H22V9H16.5M12,13.5L9,16.5V22H15V16.5L12,13.5M11,18H13V20H11V18Z" /></svg>
